src/images/bitcore-logo-vertical-dark.svg

<?xml version="1.0" encoding="UTF-8" standalone="no"?>
<svg width="104px" height="138px" viewBox="0 0 104 138" version="1.1" xmlns="http://www.w3.org/2000/svg" xmlns:xlink="http://www.w3.org/1999/xlink" xmlns:sketch="http://www.bohemiancoding.com/sketch/ns">
    <!-- Generator: Sketch 3.3.3 (12072) - http://www.bohemiancoding.com/sketch -->
    <title>bitcore-logo-vertical-dark</title>
    <desc>Created with Sketch.</desc>
    <defs></defs>
    <g id="Page-1" stroke="none" stroke-width="1" fill="none" fill-rule="evenodd" sketch:type="MSPage">
        <g id="bitcore-logo-vertical-dark" sketch:type="MSArtboardGroup" fill="#474747">
            <path d="M11.2871791,119.729424 C12.3217246,119.729424 13.2164508,119.912129 13.9713576,120.278714 C14.725677,120.645299 15.3513391,121.141129 15.847169,121.766791 C16.3429988,122.391866 16.7095839,123.125036 16.9463368,123.965714 C17.1836772,124.806392 17.3023474,125.712281 17.3023474,126.682204 C17.3023474,128.170281 17.0274085,129.576699 16.4775309,130.902632 C15.9276532,132.228566 15.1786211,133.382369 14.2298471,134.362867 C13.2816606,135.343952 12.1601687,136.120595 10.8665462,136.691622 C9.57292376,137.263237 8.17120568,137.54875 6.66197947,137.54875 C6.46811234,137.54875 6.12855113,137.543463 5.64388331,137.532301 C5.15862802,137.521726 4.60346306,137.472966 3.97780097,137.387194 C3.35272635,137.300835 2.69005326,137.17159 1.98919422,136.998872 C1.28833518,136.826742 0.625662093,136.589401 0,136.287439 L5.59512279,112.776056 L10.6080567,112 L8.60241317,120.343924 C9.03420813,120.149469 9.46482815,119.998488 9.89662311,119.89098 C10.3278306,119.782884 10.7907618,119.729424 11.2871791,119.729424 L11.2871791,119.729424 Z M7.08261238,133.570949 C7.83751923,133.570949 8.54895284,133.387656 9.21750069,133.021071 C9.88546106,132.654486 10.4623626,132.163944 10.9476179,131.549444 C11.4322858,130.934944 11.8153202,130.239959 12.0955463,129.463316 C12.3757724,128.68726 12.5155918,127.878893 12.5155918,127.038214 C12.5155918,126.003081 12.3434612,125.194714 11.9986128,124.612525 C11.6537643,124.030336 11.0175276,123.739536 10.0904902,123.739536 C9.7885275,123.739536 9.39491849,123.792996 8.91025067,123.901092 C8.42499537,124.0086 7.9885006,124.235366 7.60017887,124.580214 L5.46587804,133.441704 C5.59512279,133.462853 5.70850569,133.48459 5.80543925,133.506327 C5.90237281,133.527476 6.00459366,133.543925 6.11268927,133.5545 C6.22019741,133.565662 6.34944216,133.570949 6.50042353,133.570949 L7.08261238,133.570949 L7.08261238,133.570949 Z M23.382138,137.095806 L18.5959698,137.095806 L22.6383932,120.084847 L27.4568725,120.084847 L23.382138,137.095806 L23.382138,137.095806 Z M25.7108934,118.015168 C25.0423456,118.015168 24.4390076,117.815426 23.8997045,117.41653 C23.3609888,117.018221 23.0913373,116.409008 23.0913373,115.589479 C23.0913373,115.137123 23.1829836,114.711202 23.3662761,114.312306 C23.5495687,113.91341 23.7921963,113.568561 24.0935716,113.277173 C24.3955343,112.986372 24.7456701,112.754319 25.1451539,112.581601 C25.5434627,112.409471 25.9693829,112.323112 26.422327,112.323112 C27.0908749,112.323112 27.6942129,112.522854 28.233516,112.92175 C28.7722316,113.320059 29.0418831,113.929272 29.0418831,114.748801 C29.0418831,115.201745 28.9502369,115.627078 28.7669443,116.025974 C28.5836518,116.42487 28.3410241,116.770306 28.0390614,117.061107 C27.7376861,117.351908 27.3869629,117.583961 26.9880666,117.756091 C26.5891702,117.928809 26.1638375,118.015168 25.7108934,118.015168 L25.7108934,118.015168 Z M32.3728729,115.848556 L37.3858068,115.071913 L36.1568067,120.084847 L41.5251637,120.084847 L40.5552406,124.030336 L35.2191948,124.030336 L33.7957401,129.980882 C33.6664953,130.476712 33.5854236,130.940231 33.5531125,131.371438 C33.5208013,131.802646 33.5748491,132.174518 33.7152559,132.487643 C33.8550752,132.80018 34.0977028,133.042808 34.4425513,133.214938 C34.7873998,133.387656 35.2620806,133.474015 35.866006,133.474015 C36.382985,133.474015 36.8846897,133.425255 37.3693575,133.328321 C37.8546128,133.231388 38.3451554,133.096268 38.8409852,132.924138 L39.1969958,136.610551 C38.5501845,136.847891 37.8493255,137.05292 37.0950061,137.225051 C36.3400993,137.397769 35.4453731,137.484128 34.4102401,137.484128 C32.9227506,137.484128 31.7695349,137.263237 30.9500057,136.820867 C30.1310639,136.379085 29.5482876,135.77516 29.2034391,135.009678 C28.8585906,134.244784 28.7076092,133.36592 28.7510825,132.37426 C28.7939682,131.3826 28.9449496,130.336893 29.2034391,129.237138 L32.3728729,115.848556 L32.3728729,115.848556 Z M41.6867197,130.304582 C41.6867197,128.838241 41.92406,127.45826 42.3981533,126.164637 C42.872834,124.871015 43.5519564,123.739536 44.436108,122.769025 C45.3196721,121.799102 46.3924036,121.033621 47.6537148,120.473168 C48.9150261,119.912129 50.3220315,119.631903 51.8741435,119.631903 C52.8446541,119.631903 53.7123563,119.723549 54.4772503,119.906841 C55.2433191,120.090134 55.9383034,120.332762 56.563378,120.634724 L54.9143325,124.386347 C54.483125,124.213629 54.0354682,124.05736 53.5719495,123.916954 C53.1084308,123.777134 52.5426913,123.707225 51.8741435,123.707225 C50.2574091,123.707225 48.9849358,124.251227 48.0578984,125.340408 C47.1308611,126.429002 46.6673424,127.911204 46.6673424,129.787015 C46.6673424,130.886771 46.9046828,131.776209 47.378776,132.455332 C47.8534567,133.134454 48.7264463,133.474015 49.9983321,133.474015 C50.6239942,133.474015 51.2273322,133.409393 51.8095211,133.279561 C52.3917099,133.150316 52.9092764,132.98876 53.3616331,132.794893 L53.7176436,136.642862 C53.1137181,136.880202 52.451045,137.090519 51.7284494,137.273811 C51.0064412,137.457104 50.1281644,137.54875 49.0930314,137.54875 C47.7559357,137.54875 46.6244566,137.354883 45.6974193,136.966561 C44.7703819,136.578239 44.0049005,136.055973 43.400975,135.398 C42.7970496,134.740614 42.3605548,133.969845 42.0914907,133.085694 C41.8218392,132.201542 41.6867197,131.274505 41.6867197,130.304582 L41.6867197,130.304582 Z M63.1284239,137.54875 C61.9857828,137.54875 60.9941231,137.376032 60.1534448,137.031184 C59.3127664,136.686335 58.6171946,136.20108 58.067317,135.576005 C57.5174393,134.95093 57.1026811,134.212473 56.822455,133.360633 C56.5422289,132.508792 56.4018221,131.565893 56.4018221,130.53076 C56.4018221,129.237138 56.6121386,127.943515 57.0327715,126.649893 C57.4528169,125.35627 58.0726043,124.191892 58.8921335,123.157347 C59.7116627,122.122214 60.713897,121.276248 61.9000113,120.618275 C63.0855382,119.960889 64.443783,119.631903 65.9747459,119.631903 C67.0956503,119.631903 68.0820228,119.804621 68.9338632,120.149469 C69.7857036,120.494318 70.4859752,120.979573 71.0358528,121.604647 C71.5857305,122.23031 72.0004887,122.968767 72.2813023,123.82002 C72.5615284,124.67186 72.7013477,125.615347 72.7013477,126.649893 C72.7013477,127.943515 72.4963185,129.237138 72.0868477,130.53076 C71.6773768,131.824382 71.0734513,132.98876 70.2756587,134.023893 C69.4778661,135.058439 68.4809191,135.904992 67.2842302,136.562378 C66.0875413,137.219763 64.70286,137.54875 63.1284239,137.54875 L63.1284239,137.54875 Z M65.5218017,123.707225 C64.8103681,123.707225 64.1852935,123.911666 63.6459904,124.321725 C63.1072748,124.731196 62.6543307,125.248762 62.2877456,125.873837 C61.9211605,126.498911 61.6462216,127.183321 61.4629291,127.927653 C61.280224,128.671398 61.1879902,129.377544 61.1879902,130.045505 C61.1879902,131.14526 61.3607082,131.991813 61.7055567,132.584577 C62.0509927,133.17734 62.6760673,133.474015 63.581368,133.474015 C64.2928017,133.474015 64.9184637,133.268986 65.4571794,132.859515 C65.9964825,132.449457 66.4488391,131.932478 66.8154242,131.306816 C67.1820093,130.681741 67.4569482,129.997332 67.6402407,129.253587 C67.8235333,128.509255 67.9151796,127.803696 67.9151796,127.135148 C67.9151796,126.035393 67.7424616,125.189427 67.3976131,124.596663 C67.0527646,124.003313 66.42769,123.707225 65.5218017,123.707225 L65.5218017,123.707225 Z M86.9958172,124.224204 C86.5646097,124.116695 86.1386895,124.014475 85.7186441,123.916954 C85.2980112,123.82002 84.6782238,123.771847 83.8586946,123.771847 C83.5573194,123.771847 83.2230454,123.798871 82.8564603,123.852331 C82.4898752,123.906379 82.1879125,123.965714 81.9511596,124.030336 L78.814037,137.095806 L73.9949702,137.095806 L77.8758376,120.990147 C78.8028749,120.688772 79.8432952,120.402671 80.9970983,120.133607 C82.150314,119.863956 83.4492237,119.729424 84.8938276,119.729424 C85.4325432,119.729424 86.0311814,119.777597 86.6885672,119.87453 C87.3465405,119.971464 87.9228546,120.127732 88.4186844,120.343924 L86.9958172,124.224204 L86.9958172,124.224204 Z M88.0955726,130.433826 C88.0955726,129.053845 88.3382002,127.717337 88.822868,126.423714 C89.3081233,125.130092 89.992533,123.982163 90.8766846,122.979342 C91.7608362,121.977107 92.8335677,121.168153 94.0948789,120.553653 C95.3561902,119.939153 96.7520335,119.631903 98.2824089,119.631903 C99.0373157,119.631903 99.7381748,119.739998 100.384986,119.955602 C101.031797,120.171206 101.597537,120.483743 102.082792,120.893214 C102.568047,121.303272 102.945207,121.804389 103.214859,122.397153 C103.483923,122.989916 103.619042,123.663751 103.619042,124.418658 C103.619042,125.625922 103.349391,126.649893 102.810675,127.491158 C102.271372,128.331837 101.52234,129.016246 100.562991,129.544388 C99.6030553,130.072529 98.4657014,130.455563 97.1509298,130.692316 C95.8355707,130.929656 94.402129,131.048326 92.8494295,131.048326 C93.0004109,131.953627 93.3293975,132.595151 93.835802,132.972311 C94.3427939,133.350058 95.1458738,133.538638 96.2450416,133.538638 C96.9353261,133.538638 97.6355977,133.479303 98.3476187,133.360633 C99.0590523,133.241962 99.7270127,133.063957 100.352675,132.827204 L100.708098,136.610551 C100.104172,136.847891 99.3339912,137.063495 98.3957918,137.257362 C97.4581799,137.451816 96.4394962,137.54875 95.3397409,137.54875 C94.0032327,137.54875 92.8764534,137.36017 91.9599906,136.98301 C91.0435278,136.605263 90.299783,136.093572 89.7287562,135.44676 C89.1571419,134.799949 88.7423838,134.045042 88.4833068,133.182627 C88.2248173,132.320212 88.0955726,131.404337 88.0955726,130.433826 L88.0955726,130.433826 Z M97.5063529,123.448148 C96.407185,123.448148 95.4419617,123.841757 94.6118579,124.628975 C93.7817542,125.415605 93.2377512,126.456025 92.9786743,127.749648 C94.31577,127.706175 95.3937887,127.593379 96.2127304,127.410087 C97.0322597,127.226794 97.6684963,127.005903 98.1208529,126.746826 C98.5737971,126.488337 98.8757598,126.208111 99.0267412,125.906148 C99.1771351,125.604185 99.2529195,125.302222 99.2529195,125.000847 C99.2529195,123.965714 98.6707306,123.448148 97.5063529,123.448148 L97.5063529,123.448148 Z" id="Fill-1-Copy" sketch:type="MSShapeGroup"></path>
            <g id="Imported-Layers" sketch:type="MSLayerGroup" transform="translate(6.000000, 0.000000)">
                <path d="M63.1051666,56.2579493 L91.0335199,74.6306848 C87.2277908,29.2533983 58.324601,6.74041436 48.6189742,0.41463761 L48.6189742,32.7420734 C52.9762287,35.9815574 60.6914796,43.3960132 63.1051666,56.2579493" id="Fill-1" sketch:type="MSShapeGroup"></path>
                <path d="M0.0684533625,74.1527281 L28.0497206,55.9556519 C29.1690527,50.1997465 32.5392598,41.0613787 42.5135264,33.0280303 L42.5135264,0.637275539 C5.14818592,28.4690592 0.534502543,63.0004062 0.0684533625,74.1527281" id="Fill-2" sketch:type="MSShapeGroup"></path>
                <path d="M29.3338997,62.4223646 L3.41016845,79.2795281 C44.8987213,96.829116 77.1965401,84.7739871 87.6612776,79.7411444 L61.7660384,62.7042365 C57.1401441,64.7610841 44.9129673,68.6929925 29.3338997,62.4223646" id="Fill-3" sketch:type="MSShapeGroup"></path>
            </g>
        </g>
    </g>
</svg>

<svg width="104" height="138" viewBox="0 0 104 138" xmlns="http://www.w3.org/2000/svg"><title>bitcore-logo-vertical-dark</title><path d="M11.287 119.73c1.035 0 1.93.182 2.684.55.76.365 1.38.86 1.88 1.487.496.625.863 1.358 1.1 2.2.237.84.355 1.745.355 2.715 0 1.488-.275 2.895-.824 4.22-.55 1.327-1.3 2.48-2.25 3.46-.946.982-2.07 1.76-3.36 2.33-1.295.57-2.697.857-4.206.857-.194 0-.533-.01-1.018-.02s-1.04-.06-1.666-.146c-.627-.086-1.29-.215-1.99-.388-.7-.173-1.364-.41-1.99-.713l5.595-23.51 5.013-.777L8.6 120.34c.433-.194.864-.345 1.296-.452.43-.108.894-.16 1.39-.16zm-4.204 13.84c.755 0 1.466-.182 2.135-.55.667-.366 1.244-.856 1.73-1.47.484-.615.867-1.31 1.148-2.087.28-.776.42-1.584.42-2.425 0-1.035-.173-1.843-.517-2.425-.35-.583-.985-.873-1.91-.873-.3 0-.698.053-1.18.16-.488.11-.92.335-1.31.68l-2.137 8.862c.13.02.243.043.34.064.096.02.2.038.307.048.108.012.237.017.388.017h.582zm16.3 3.526h-4.787l4.042-17.01h4.82l-4.076 17.01zm2.328-19.08c-.665 0-1.27-.2-1.81-.6-.54-.398-.81-1.007-.81-1.827 0-.456.096-.88.28-1.28.183-.4.425-.744.727-1.036.302-.29.652-.523 1.05-.695.4-.173.825-.26 1.278-.26.67 0 1.272.2 1.812.6.538.4.808 1.007.808 1.827 0 .452-.092.877-.275 1.276-.184.4-.427.744-.73 1.035-.3.29-.652.522-1.05.694-.4.173-.825.26-1.278.26zm6.666-2.167l5.013-.78-1.23 5.012h5.37l-.97 3.945h-5.34l-1.424 5.95c-.13.496-.21.96-.243 1.39-.032.432.022.804.162 1.117.14.312.383.555.728.727.344.174.82.26 1.423.26.517 0 1.02-.05 1.503-.146.482-.097.972-.232 1.47-.404l.354 3.688c-.647.238-1.348.443-2.102.615-.755.173-1.65.26-2.685.26-1.488 0-2.64-.222-3.46-.664-.82-.44-1.403-1.046-1.748-1.81-.345-.766-.496-1.645-.453-2.637.044-.99.195-2.037.453-3.137l3.17-13.388zM41.69 130.3c0-1.467.236-2.847.71-4.14.475-1.294 1.154-2.425 2.04-3.396.882-.97 1.954-1.736 3.216-2.297 1.26-.56 2.668-.84 4.22-.84.97 0 1.838.09 2.603.274.764.183 1.46.426 2.084.728l-1.65 3.75c-.43-.17-.878-.328-1.34-.468-.465-.14-1.03-.21-1.7-.21-1.616 0-2.888.544-3.815 1.633-.93 1.09-1.39 2.57-1.39 4.447 0 1.1.235 1.99.71 2.668.473.68 1.346 1.02 2.62 1.02.624 0 1.23-.066 1.81-.195.582-.13 1.1-.29 1.552-.485l.356 3.848c-.606.24-1.27.45-1.99.63-.724.186-1.6.278-2.637.278-1.336 0-2.47-.195-3.395-.583-.927-.39-1.692-.91-2.296-1.57-.603-.656-1.04-1.427-1.31-2.31-.268-.885-.403-1.812-.403-2.782zm21.44 7.244c-1.14 0-2.134-.174-2.975-.52-.84-.344-1.536-.83-2.086-1.454-.55-.625-.966-1.364-1.247-2.215-.28-.85-.42-1.795-.42-2.83 0-1.294.21-2.587.63-3.88.42-1.295 1.04-2.46 1.86-3.494.82-1.035 1.822-1.88 3.008-2.54 1.188-.656 2.546-.985 4.077-.985 1.12 0 2.107.173 2.96.517.85.344 1.55.83 2.1 1.455.55.625.965 1.364 1.246 2.215.282.852.42 1.795.42 2.83 0 1.294-.204 2.587-.613 3.88-.41 1.294-1.014 2.46-1.81 3.494-.8 1.034-1.796 1.88-2.993 2.54-1.196.656-2.58.985-4.156.985zm2.394-13.843c-.712 0-1.337.205-1.876.615-.54.41-.992.926-1.358 1.55-.368.626-.643 1.31-.826 2.055-.183.743-.275 1.45-.275 2.118 0 1.1.17 1.947.515 2.54.345.59.97.89 1.875.89.714 0 1.34-.205 1.878-.614.54-.41.99-.928 1.357-1.553.367-.625.642-1.31.825-2.053.184-.744.275-1.45.275-2.12 0-1.1-.173-1.944-.517-2.536-.345-.594-.97-.89-1.876-.89zm21.474.517c-.43-.106-.857-.21-1.277-.306-.42-.097-1.04-.145-1.86-.145-.3 0-.635.025-1.002.08-.366.052-.668.112-.905.176l-3.135 13.066h-4.82l3.882-16.106c.926-.3 1.966-.587 3.12-.856 1.153-.27 2.452-.404 3.897-.404.54 0 1.137.048 1.795.145.657.098 1.233.255 1.73.47l-1.424 3.88zm1.1 6.21c0-1.38.242-2.716.727-4.01.485-1.293 1.17-2.44 2.054-3.444.882-1.003 1.955-1.812 3.216-2.426 1.26-.614 2.657-.92 4.187-.92.755 0 1.456.107 2.103.323.647.215 1.213.528 1.698.937.485.41.862.91 1.132 1.504.27.593.404 1.267.404 2.022 0 1.206-.27 2.23-.81 3.07-.54.842-1.287 1.526-2.246 2.054-.96.53-2.097.912-3.412 1.148-1.313.238-2.747.356-4.3.356.15.906.48 1.547.987 1.924.505.378 1.31.567 2.41.567.69 0 1.39-.06 2.1-.18.71-.118 1.38-.296 2.004-.533l.355 3.784c-.606.238-1.376.453-2.314.647-.938.195-1.957.292-3.056.292-1.335 0-2.462-.19-3.38-.567-.914-.378-1.66-.89-2.23-1.536-.57-.647-.986-1.402-1.245-2.264-.258-.863-.387-1.78-.387-2.75zm9.41-6.985c-1.1 0-2.064.394-2.894 1.18-.83.788-1.374 1.828-1.633 3.122 1.338-.044 2.416-.157 3.235-.34.82-.183 1.455-.404 1.908-.663.455-.26.757-.54.908-.84.15-.303.227-.605.227-.906 0-1.035-.582-1.553-1.747-1.553zM69.105 56.258l27.93 18.373C93.227 29.257 64.325 6.74 54.618.42v32.327c4.356 3.24 12.07 10.654 14.485 23.516M6.068 74.153L34.05 55.956c1.12-5.756 4.49-14.895 14.464-22.928V.638C11.148 28.468 6.534 63 6.068 74.152m29.266-11.73L9.41 79.28c41.49 17.55 73.787 5.494 84.25.46L67.767 62.705c-4.626 2.057-16.853 5.99-32.432-.282" fill="#474747" fill-rule="evenodd"/></svg>
